X:1
T:To Thee, Dear Lord,  I Go
T:To Thee, Dear Lord,  I Go
T:Rufus Henry Cornelius
T:Mary Maria Kiernan Kennedy, 1900
T:Public Domain Courtesy of the Cyber Hymnal™
C:Rufus Henry Cornelius
Z:Public Domain
Z:Courtesy of the Cyber Hymnal™
%%score ( 1 2 ) 3
L:1/8
Q:1/4=110
M:4/4
K:Ab
V:1 treble 
V:2 treble 
V:3 bass 
V:1
 [Ae]2 | [Ae]2 [Ac]2 [Ac]3 [EB] | [FA]2 [DF]2 [CE]2 [CE]2 | [EA]2 [EA]2 [Ac]2 A2 | [GB]6 [Ge]2 | %5
w: 1.~Re-|mem- ber me, dear|Lord, to- day, My|sor- row Thou dost|know; My|
w: 2.~The|floods of grief a-|round me rise, The|winds of trou- ble|blow; Thou|
w: 3.~Thou,|on- ly Thou, hast|power to heal The|sor- rows here be-|low; Thy|
w: 4.~In|ev- ery tri- al|that we meet, Thy|lov- ing help be-|stow; In|
 [Ae]2 [Ac]2 [Ac]3 [EB] | [FA]2 [DF]2 [FA]2 [DF]2 | [CE]2 [Ec]2 [Ec]2 [DB]2 | [CA]6 || %9
w: heart is pressed with|care and grief, To|Thee, dear Lord, I|go.|
w: art the rock I’m|rest- ing on, To|Thee, dear Lord, I|go.|
w: love will soothe the|strick- en heart, To|Thee, dear Lord, I|go.|
w: time of grief, in|time of need, To|Thee, dear Lord, I|go.|
"^Refrain" [Ae]2 | [Ae]6 [ce]2 | [Ac]6 [EA]2 | [FA]6 [DF]2 | [CE]6 [CE]2 | [EA][EA][EA]A [Ac]2 A2 | %15
w: ||||||
w: To|Thee, dear|Lord, to|Thee, I|go, Thou|canst sus- tain and com- fort|
w: ||||||
w: ||||||
 [GB]6 [Ge]2 | [Ae]6 [Ac]2 | [Ac]6 [EA]2 | [FA]6 [DF]2 | [CE]6 [CE]2 | [EA]2 [EA]2 [Ac]2 [EB]2 | %21
w: ||||||
w: me, To|Thee, dear|Lord, to|Thee, I|go. To|Thee, dear Lord, I|
w: ||||||
w: ||||||
 [EA]6 |] %22
w: |
w: go.|
w: |
w: |
V:2
 x2 | x8 | x8 | x6 A2 | x8 | x8 | x8 | x8 | x6 || x2 | x8 | x8 | x8 | x8 | x3 A x A2 x | x8 | x8 | %17
 x8 | x8 | x8 | x8 | x6 |] %22
V:3
 [A,C]2 | [A,C]2 [A,E]2 [A,E]3 [A,C] | [D,D]2 [D,A,]2 [A,,A,]2 [A,,A,]2 | %3
w: ~|~ ~ ~ ~|~ ~ ~ ~|
 [A,,C]2 [A,,C]2 [A,E]2 [A,C]2 | [E,E]6 [E,D]2 | [A,C]2 [A,E]2 [A,E]3 [A,C] | %6
w: ~ ~ ~ ~|~ ~|~ ~ ~ ~|
 [D,D]2 [D,A,]2 [D,A,]2 [D,A,]2 | [E,A,]2 [E,A,]2 [E,A,]2 [E,G,]2 | [A,,A,]6 || [A,C]2 | %10
w: ~ ~ ~ ~|~ ~ ~ ~|~|To|
 [A,C]2 [A,C]2 [A,C]2 [A,E]2 | [A,E]2 [A,E]2 [A,E]2 [A,C]2 | [D,D]2 [D,D]2 [D,D]2 [D,A,]2 | %13
w: Thee, dear Lord, to|Thee, I go, To|Thee, dear Lord, to|
 [A,,A,]2 [A,,A,]2 [A,,A,]2 [A,,A,]2 | [A,,C][A,,C][C,A,][E,C] [A,E]2 [C,E]2 | [E,E]6 [E,D]2 | %16
w: Thee, I go, ~|~ ~ ~ ~ ~ ~|~ ~|
 [A,C]2 [A,C]2 [A,C]2 [A,E]2 | [A,E]2 [A,E]2 [A,E]2 [A,C]2 | [D,D]2 [D,D]2 [D,D]2 [D,A,]2 | %19
w: Thee, dear Lord, to|Thee I go, To|Thee, dear Lord, to|
 [A,,A,]2 [A,,A,]2 [A,,A,]2 [A,,A,]2 | [A,C]2 [A,C]2 [E,E]2 [E,D]2 | [A,,C]6 |] %22
w: Thee I go. *|||

